src/topics/icons/chartblocks.svg

<?xml version="1.0" encoding="UTF-8" standalone="no"?>
<svg width="256px" height="256px" viewBox="0 0 256 256" version="1.1" xmlns="http://www.w3.org/2000/svg" xmlns:xlink="http://www.w3.org/1999/xlink" preserveAspectRatio="xMidYMid">
	<g>
		<path d="M248.3523,84.4616 C241.9393,66.7206 231.7453,50.7886 218.6963,37.6846 L218.2823,38.4456 L218.2823,79.9716 L218.6963,80.7316 C218.8563,80.7446 218.8103,81.2096 218.9703,81.2236 C228.1383,82.0156 238.0113,83.1086 247.8873,84.7226 C248.0933,84.7566 248.1453,84.4276 248.3523,84.4616" fill="#C0D84B"></path>
		<path d="M218.6965,80.732 L218.6965,37.685 C208.1995,27.148 195.8685,18.446 182.2435,12.059 L181.6225,13.412 L181.6225,78.62 L182.2435,79.68 C182.3965,79.675 182.9855,80.18 183.1385,80.176 C194.2075,79.852 205.8795,80.152 218.1745,81.162 C218.4935,81.188 218.3765,80.705 218.6965,80.732" fill="#65C1ED"></path>
		<path d="M174.0681,80.0512 C174.2851,80.0382 174.6821,80.3992 174.9001,80.3862 C177.1201,80.2582 179.3341,80.2102 181.6051,80.1342 C181.8661,80.1252 181.9821,79.6882 182.2431,79.6802 L182.2431,12.0582 C170.9001,6.7422 158.6561,3.0492 145.7941,1.2612 L145.0511,2.1352 L145.0511,62.6612 L145.7941,63.8742 C156.5791,66.8592 166.2311,72.5172 174.0681,80.0512" fill="#2F95D2"></path>
		<path d="M182.2435,89.4637 L182.5785,88.9297 L182.5785,80.1707 L182.2435,79.6797 C179.4825,79.7657 176.7555,79.8897 174.0685,80.0507 C177.0665,82.9317 179.8245,86.0647 182.2435,89.4637" fill="#1C75BC"></path>
		<path d="M128,61.4492 C134.167,61.4492 140.128,62.3052 145.794,63.8742 L145.794,1.2612 C139.977,0.4512 134.043,0.0022 128,0.0022 C121.661,0.0022 115.433,0.4822 109.339,1.3722 L108.736,2.0702 L108.736,63.3762 L109.339,64.1212 C115.266,62.3942 121.52,61.4492 128,61.4492" fill="#2A75BB"></path>
		<path d="M109.3392,64.1207 L109.3392,1.3717 C96.4682,3.2507 84.2212,7.0387 72.8952,12.4497 L72.1612,13.9157 L72.1612,89.9297 L72.8952,90.6797 C81.4812,78.0267 94.3112,68.5027 109.3392,64.1207" fill="#BF65A7"></path>
		<path d="M72.8957,90.6804 L72.8957,12.4494 C59.2247,18.9794 46.9127,27.8764 36.4457,38.5894 L35.7807,39.4274 L35.7807,137.5684 L36.4457,138.7594 C36.5867,138.6174 36.7907,139.1854 36.9327,139.0434 C44.1847,131.7974 52.4237,124.7144 61.7477,118.1094 C61.9857,117.9414 62.1627,117.0624 62.4017,116.8944 C64.0137,107.3084 67.6497,98.4104 72.8957,90.6804 Z" fill="#F37321"></path>
		<path d="M36.4453,138.7596 L36.4453,38.5886 C13.9083,61.6626 0.0003,93.2006 0.0003,128.0026 C0.0003,144.2036 3.0493,159.6776 8.5443,173.9396 C8.7273,173.6476 9.1173,174.0796 9.3043,173.7866 C16.0583,163.1366 24.7353,151.6246 35.7153,140.4316 C36.0253,140.1156 36.1313,139.0746 36.4453,138.7596" fill="#FFCF01"></path>
		<path d="M8.5449,173.9392 C14.8539,190.3162 24.4039,205.0802 36.4459,217.4142 L36.9519,216.1212 L36.9519,139.9762 L36.4459,138.7592 C24.7149,150.5562 15.5639,162.7472 8.5449,173.9392" fill="#FAA61A"></path>
		<path d="M61.4492,128.0026 C61.4492,124.2146 61.7922,120.5096 62.4012,116.8946 C52.5992,123.7726 43.9842,131.1806 36.4462,138.7596 L36.4462,217.4146 C46.9122,228.1276 59.2262,237.0226 72.8962,243.5536 L73.5922,242.8036 L73.5922,167.1796 L72.8962,165.3236 C65.6732,154.6786 61.4492,141.8336 61.4492,128.0026" fill="#ED1C24"></path>
		<path d="M182.2435,79.68 L182.2435,89.464 C189.9835,100.342 194.5535,113.634 194.5535,128.003 C194.5535,142.37 189.9835,155.662 182.2435,166.541 L182.2435,243.944 C195.8685,237.555 208.1995,228.857 218.6965,218.316 L219.8775,215.849 L219.8775,81.802 L218.6965,80.732 C205.8785,79.645 193.7355,79.325 182.2435,79.68" fill="#27AAE1"></path>
		<path d="M72.8957,165.3233 L72.8957,243.5533 C84.2207,248.9653 96.4697,252.7513 109.3397,254.6343 L110.1677,253.6073 L110.1677,192.6913 L109.3397,191.8833 C94.3107,187.5013 81.4817,177.9743 72.8957,165.3233" fill="#92278F"></path>
		<path d="M128,194.5517 C121.52,194.5517 115.266,193.6107 109.339,191.8827 L109.339,254.6337 C115.433,255.5247 121.661,255.9997 128,255.9997 C134.043,255.9997 139.977,255.5527 145.794,254.7417 L146.352,253.3457 L146.352,192.9517 L145.794,192.1297 C140.128,193.6977 134.167,194.5517 128,194.5517" fill="#21409A"></path>
		<path d="M145.7939,192.1293 L145.7939,254.7413 C158.6559,252.9513 170.8999,249.2623 182.2439,243.9433 L183.1879,242.0883 L183.1879,167.7003 L182.2439,166.5403 C173.5009,178.8193 160.7009,188.0013 145.7939,192.1293" fill="#1C75BC"></path>
		<path d="M255.1435,113.3698 C254.0045,103.3318 251.6765,93.6588 248.3525,84.4618 C238.0825,82.7658 228.2045,81.5398 218.6965,80.7308 L218.6965,218.3148 C238.5075,198.4198 251.7985,172.0368 255.1435,142.6348 C255.6905,137.8278 255.9995,132.9538 255.9995,128.0018 C255.9995,123.0488 255.6905,118.1738 255.1435,113.3698" fill="#8DC63F"></path>
	</g>
</svg>

<svg height="256" preserveAspectRatio="xMidYMid" viewBox="0 0 256 256" width="256" xmlns="http://www.w3.org/2000/svg"><path d="m248.3523 84.4616c-6.413-17.741-16.607-33.673-29.656-46.777l-.414.761v41.526l.414.76c.16.013.114.478.274.492 9.168.792 19.041 1.885 28.917 3.499.206.034.258-.295.465-.261" fill="#c0d84b"/><path d="m218.6965 80.732v-43.047c-10.497-10.537-22.828-19.239-36.453-25.626l-.621 1.353v65.208l.621 1.06c.153-.005.742.5.895.496 11.069-.324 22.741-.024 35.036.986.319.026.202-.457.522-.43" fill="#65c1ed"/><path d="m174.0681 80.0512c.217-.013.614.348.832.335 2.22-.128 4.434-.176 6.705-.252.261-.009.377-.446.638-.454v-67.622c-11.343-5.316-23.587-9.009-36.449-10.797l-.743.874v60.526l.743 1.213c10.785 2.985 20.437 8.643 28.274 16.177" fill="#2f95d2"/><path d="m182.2435 89.4637.335-.534v-8.759l-.335-.491c-2.761.086-5.488.21-8.175.371 2.998 2.881 5.756 6.014 8.175 9.413" fill="#1c75bc"/><path d="m128 61.4492c6.167 0 12.128.856 17.794 2.425v-62.613c-5.817-.81-11.751-1.259-17.794-1.259-6.339 0-12.567.48-18.661 1.37l-.603.698v61.306l.603.745c5.927-1.727 12.181-2.672 18.661-2.672" fill="#2a75bb"/><path d="m109.3392 64.1207v-62.749c-12.871 1.879-25.118 5.667-36.444 11.078l-.734 1.466v76.014l.734.75c8.586-12.653 21.416-22.177 36.444-26.559" fill="#bf65a7"/><path d="m72.8957 90.6804v-78.231c-13.671 6.53-25.983 15.427-36.45 26.14l-.665.838v98.141l.665 1.191c.141-.142.345.426.487.284 7.252-7.246 15.491-14.329 24.815-20.934.238-.168.415-1.047.654-1.215 1.612-9.586 5.248-18.484 10.494-26.214z" fill="#f37321"/><path d="m36.4453 138.7596v-100.171c-22.537 23.074-36.445 54.612-36.445 89.414 0 16.201 3.049 31.675 8.544 45.937.183-.292.573.14.76-.153 6.754-10.65 15.431-22.162 26.411-33.355.31-.316.416-1.357.73-1.672" fill="#ffcf01"/><path d="m8.5449 173.9392c6.309 16.377 15.859 31.141 27.901 43.475l.506-1.293v-76.145l-.506-1.217c-11.731 11.797-20.882 23.988-27.901 35.18" fill="#faa61a"/><path d="m61.4492 128.0026c0-3.788.343-7.493.952-11.108-9.802 6.878-18.417 14.286-25.955 21.865v78.655c10.466 10.713 22.78 19.608 36.45 26.139l.696-.75v-75.624l-.696-1.856c-7.223-10.645-11.447-23.49-11.447-37.321" fill="#ed1c24"/><path d="m182.2435 79.68v9.784c7.74 10.878 12.31 24.17 12.31 38.539 0 14.367-4.57 27.659-12.31 38.538v77.403c13.625-6.389 25.956-15.087 36.453-25.628l1.181-2.467v-134.047l-1.181-1.07c-12.818-1.087-24.961-1.407-36.453-1.052" fill="#27aae1"/><path d="m72.8957 165.3233v78.23c11.325 5.412 23.574 9.198 36.444 11.081l.828-1.027v-60.916l-.828-.808c-15.029-4.382-27.858-13.909-36.444-26.56" fill="#92278f"/><path d="m128 194.5517c-6.48 0-12.734-.941-18.661-2.669v62.751c6.094.891 12.322 1.366 18.661 1.366 6.043 0 11.977-.447 17.794-1.258l.558-1.396v-60.394l-.558-.822c-5.666 1.568-11.627 2.422-17.794 2.422" fill="#21409a"/><path d="m145.7939 192.1293v62.612c12.862-1.79 25.106-5.479 36.45-10.798l.944-1.855v-74.388l-.944-1.16c-8.743 12.279-21.543 21.461-36.45 25.589" fill="#1c75bc"/><path d="m255.1435 113.3698c-1.139-10.038-3.467-19.711-6.791-28.908-10.27-1.696-20.148-2.922-29.656-3.731v137.584c19.811-19.895 33.102-46.278 36.447-75.68.547-4.807.856-9.681.856-14.633 0-4.953-.309-9.828-.856-14.632" fill="#8dc63f"/></svg>
